; generated by Slic3r 1.3.0 on 2018-05-30 at 16:26:09

; external perimeters extrusion width = 0.38mm (0.00mm^3/s)
; perimeters extrusion width = 0.37mm (0.00mm^3/s)
; infill extrusion width = 0.37mm (0.00mm^3/s)
; solid infill extrusion width = 0.37mm (0.00mm^3/s)
; top infill extrusion width = 0.37mm (0.00mm^3/s)
; support material extrusion width = 0.38mm (0.00mm^3/s)

M107
M190 S65 ; set bed temperature and wait for it to be reached
M104 S205 ; set temperature
G28 ; home all axes
G1 Z5 F5000 ; lift nozzle
; Filament gcode

M109 S205 ; set temperature and wait for it to be reached
G21 ; set units to millimeters
G90 ; use absolute coordinates
M82 ; use absolute distances for extrusion
G92 E0
G1 E-1.00000 F1800.00000
G92 E0
G1 Z0.350 F12000.000
G1 X118.683 Y117.773 F12000.000
G1 E1.00000 F1800.00000
G1 F3000
G1 X119.038 Y117.435 E1.01536
G1 X120.802 Y115.874 E1.08923
G1 X122.266 Y114.717 E1.14774
G1 X124.192 Y113.361 E1.22161
G1 X124.603 Y113.095 E1.23697
G1 X126.626 Y111.888 E1.31083
G1 X128.720 Y110.809 E1.38470
G1 X130.424 Y110.049 E1.44321
G1 X132.625 Y109.210 E1.51708
G1 X133.089 Y109.052 E1.53244
G1 X135.347 Y108.381 E1.60631
G1 X137.163 Y107.950 E1.66482
G1 X139.481 Y107.534 E1.73869
G1 X141.821 Y107.263 E1.81256
G1 X142.473 Y107.217 E1.83303
G1 X144.663 Y107.130 E1.90178
G1 X147.018 Y107.182 E1.97565
G1 X148.879 Y107.327 E2.03416
G1 X149.365 Y107.380 E2.04952
G1 X151.696 Y107.724 E2.12339
G1 X153.524 Y108.098 E2.18190
G1 X155.802 Y108.699 E2.25577
G1 X158.037 Y109.441 E2.32964
G1 X158.647 Y109.674 E2.35011
G1 X160.670 Y110.519 E2.41886
G1 X162.784 Y111.560 E2.49273
G1 X164.828 Y112.729 E2.56659
G1 X166.394 Y113.745 E2.62511
G1 X166.927 Y114.121 E2.64558
G1 X168.680 Y115.439 E2.71433
G1 X170.107 Y116.640 E2.77285
G1 X171.822 Y118.256 E2.84672
G1 X173.432 Y119.975 E2.92058
G1 X173.754 Y120.344 E2.93594
G1 X175.231 Y122.179 E3.00981
G1 X176.318 Y123.696 E3.06832
G1 X176.591 Y124.102 E3.08368
G1 X177.829 Y126.106 E3.15755
G1 X178.940 Y128.183 E3.23141
G1 X179.920 Y130.325 E3.30528
G1 X180.601 Y132.063 E3.36380
G1 X181.336 Y134.301 E3.43766
G1 X181.472 Y134.772 E3.45302
G1 X182.037 Y137.058 E3.52689
G1 X182.459 Y139.376 E3.60076
G1 X182.691 Y141.227 E3.65927
G1 X182.746 Y141.878 E3.67975
G1 X182.867 Y144.067 E3.74850
G1 X182.867 Y145.933 E3.80701
G1 X182.736 Y148.285 E3.88088
G1 X182.459 Y150.624 E3.95474
G1 X182.037 Y152.942 E4.02861
G1 X181.472 Y155.228 E4.10248
G1 X181.336 Y155.699 E4.11784
G1 X180.601 Y157.937 E4.19171
G1 X179.920 Y159.675 E4.25022
G1 X178.940 Y161.817 E4.32409
G1 X178.642 Y162.398 E4.34456
G1 X177.582 Y164.317 E4.41331
G1 X176.318 Y166.304 E4.48718
G1 X175.231 Y167.821 E4.54569
G1 X173.754 Y169.656 E4.61956
G1 X173.322 Y170.145 E4.64004
G1 X171.822 Y171.744 E4.70878
G1 X170.107 Y173.359 E4.78265
G1 X168.680 Y174.561 E4.84117
G1 X166.796 Y175.976 E4.91503
G1 X166.257 Y176.344 E4.93551
G1 X164.409 Y177.524 E5.00426
G1 X162.350 Y178.668 E5.07812
G1 X160.223 Y179.681 E5.15199
G1 X158.496 Y180.388 E5.21050
G1 X157.883 Y180.612 E5.23098
G1 X155.802 Y181.301 E5.29973
G1 X153.524 Y181.902 E5.37359
G1 X151.696 Y182.276 E5.43211
G1 X149.365 Y182.620 E5.50598
G1 X148.879 Y182.673 E5.52134
G1 X146.529 Y182.841 E5.59520
G1 X144.663 Y182.870 E5.65372
G1 X142.309 Y182.775 E5.72758
G1 X141.821 Y182.737 E5.74294
G1 X139.481 Y182.466 E5.81681
G1 X137.163 Y182.050 E5.89068
G1 X135.347 Y181.619 E5.94919
G1 X133.089 Y180.948 E6.02306
G1 X132.625 Y180.790 E6.03842
G1 X130.424 Y179.951 E6.11228
G1 X128.720 Y179.191 E6.17080
G1 X126.626 Y178.112 E6.24467
G1 X126.200 Y177.871 E6.26003
G1 X124.192 Y176.639 E6.33389
G1 X122.659 Y175.575 E6.39241
G1 X120.802 Y174.126 E6.46627
G1 X120.427 Y173.811 E6.48163
G1 X118.683 Y172.227 E6.55550
G1 X117.374 Y170.897 E6.61402
G1 X115.818 Y169.129 E6.68788
G1 X115.508 Y168.750 E6.70324
G1 X114.089 Y166.870 E6.77711
G1 X113.049 Y165.320 E6.83562
G1 X111.847 Y163.294 E6.90949
G1 X111.526 Y162.691 E6.93093
G1 X110.567 Y160.753 E6.99871
G1 X109.655 Y158.582 E7.07258
G1 X109.029 Y156.824 E7.13110
G1 X108.363 Y154.564 E7.20496
G1 X108.207 Y153.930 E7.22544
G1 X107.749 Y151.786 E7.29419
G1 X107.399 Y149.457 E7.36805
G1 X107.225 Y147.599 E7.42657
G1 X107.136 Y145.245 E7.50043
G1 X107.141 Y144.592 E7.52091
G1 X107.225 Y142.401 E7.58966
G1 X107.460 Y140.057 E7.66353
G1 X107.839 Y137.733 E7.73739
G1 X108.243 Y135.911 E7.79591
G1 X108.879 Y133.642 E7.86977
G1 X109.083 Y133.022 E7.89025
G1 X109.833 Y130.962 E7.95900
G1 X110.567 Y129.247 E8.01751
G1 X111.613 Y127.136 E8.09138
G1 X111.847 Y126.706 E8.10674
G1 X113.049 Y124.680 E8.18061
G1 X114.374 Y122.732 E8.25447
G1 X115.508 Y121.250 E8.31299
G1 X117.042 Y119.462 E8.38685
G1 X118.646 Y117.810 E8.45908
G1 X119.129 Y118.211 F12000.000
G1 F3000
G1 X119.455 Y117.900 E8.47322
G1 X121.189 Y116.364 E8.54586
G1 X123.015 Y114.939 E8.61851
G1 X124.549 Y113.875 E8.67703
G1 X126.523 Y112.663 E8.74968
G1 X126.916 Y112.442 E8.76382
G1 X128.975 Y111.380 E8.83646
G1 X130.679 Y110.619 E8.89498
G1 X131.096 Y110.448 E8.90912
G1 X133.271 Y109.650 E8.98177
G1 X135.492 Y108.989 E9.05442
G1 X137.307 Y108.558 E9.11293
G1 X139.588 Y108.149 E9.18558
G1 X141.889 Y107.884 E9.25823
G1 X142.502 Y107.841 E9.27749
G1 X144.653 Y107.755 E9.34501
G1 X146.970 Y107.805 E9.41766
G1 X148.830 Y107.950 E9.47618
G1 X149.278 Y107.999 E9.49032
G1 X151.570 Y108.336 E9.56297
G1 X153.398 Y108.711 E9.62148
G1 X155.638 Y109.302 E9.69413
G1 X157.837 Y110.032 E9.76678
G1 X158.410 Y110.252 E9.78604
G1 X160.398 Y111.081 E9.85357
G1 X162.477 Y112.104 E9.92621
G1 X164.488 Y113.254 E9.99886
G1 X166.054 Y114.269 E10.05738
G1 X166.555 Y114.623 E10.07663
G1 X168.277 Y115.917 E10.14416
G1 X169.705 Y117.118 E10.20268
G1 X171.390 Y118.708 E10.27533
G1 X172.974 Y120.399 E10.34798
G1 X173.269 Y120.739 E10.36212
G1 X174.723 Y122.543 E10.43476
G1 X175.810 Y124.060 E10.49328
G1 X176.062 Y124.434 E10.50742
G1 X177.280 Y126.405 E10.58007
G1 X178.374 Y128.447 E10.65271
G1 X179.161 Y130.139 E10.71123
G1 X179.398 Y130.705 E10.73049
G1 X180.170 Y132.716 E10.79802
G1 X180.741 Y134.492 E10.85653
G1 X181.325 Y136.734 E10.92918
G1 X181.769 Y139.008 E11.00183
G1 X181.859 Y139.615 E11.02109
G1 X182.112 Y141.754 E11.08862
G1 X182.243 Y144.067 E11.16127
G1 X182.243 Y145.933 E11.21978
G1 X182.112 Y148.246 E11.29243
G1 X181.839 Y150.547 E11.36508
G1 X181.423 Y152.826 E11.43772
G1 X180.866 Y155.075 E11.51037
G1 X180.741 Y155.508 E11.52451
G1 X180.019 Y157.709 E11.59716
G1 X179.338 Y159.447 E11.65568
G1 X179.161 Y159.861 E11.66982
G1 X178.171 Y161.956 E11.74247
G1 X177.053 Y163.985 E11.81511
G1 X176.062 Y165.566 E11.87363
G1 X174.723 Y167.457 E11.94628
G1 X174.346 Y167.941 E11.96553
G1 X172.974 Y169.601 E12.03306
G1 X171.390 Y171.292 E12.10571
G1 X169.705 Y172.881 E12.17836
G1 X168.277 Y174.083 E12.23688
G1 X166.424 Y175.474 E12.30953
G1 X165.917 Y175.820 E12.32878
G1 X164.102 Y176.980 E12.39631
G1 X162.077 Y178.105 E12.46896
G1 X160.398 Y178.919 E12.52747
G1 X158.259 Y179.810 E12.60012
G1 X157.682 Y180.020 E12.61938
G1 X155.638 Y180.698 E12.68691
G1 X153.398 Y181.289 E12.75956
G1 X151.570 Y181.664 E12.81807
G1 X150.964 Y181.764 E12.83733
G1 X148.830 Y182.050 E12.90486
G1 X146.519 Y182.216 E12.97751
G1 X144.653 Y182.245 E13.03602
G1 X142.339 Y182.151 E13.10867
G1 X141.889 Y182.116 E13.12281
G1 X139.588 Y181.851 E13.19546
G1 X137.307 Y181.442 E13.26811
G1 X135.492 Y181.011 E13.32662
G1 X133.271 Y180.350 E13.39927
G1 X132.844 Y180.205 E13.41341
G1 X130.679 Y179.381 E13.48606
G1 X128.975 Y178.620 E13.54458
G1 X126.916 Y177.558 E13.61722
G1 X126.523 Y177.337 E13.63136
G1 X124.549 Y176.125 E13.70401
G1 X123.015 Y175.061 E13.76253
G1 X121.189 Y173.636 E13.83518
G1 X120.844 Y173.346 E13.84932
G1 X119.129 Y171.789 E13.92197
G1 X117.819 Y170.459 E13.98048
G1 X116.289 Y168.719 E14.05313
G1 X116.004 Y168.370 E14.06727
G1 X114.607 Y166.522 E14.13992
G1 X113.568 Y164.972 E14.19843
G1 X112.387 Y162.979 E14.27108
G1 X112.084 Y162.409 E14.29130
G1 X111.142 Y160.507 E14.35787
G1 X110.243 Y158.372 E14.43051
G1 X109.617 Y156.614 E14.48903
G1 X109.479 Y156.185 E14.50317
G1 X108.853 Y153.954 E14.57582
G1 X108.366 Y151.689 E14.64847
G1 X108.021 Y149.399 E14.72111
G1 X107.847 Y147.541 E14.77963
G1 X107.761 Y145.225 E14.85228
G1 X107.766 Y144.611 E14.87154
G1 X107.847 Y142.459 E14.93907
G1 X108.077 Y140.154 E15.01171
G1 X108.450 Y137.868 E15.08436
G1 X108.964 Y135.609 E15.15701
G1 X109.479 Y133.815 E15.21553
G1 X109.617 Y133.386 E15.22967
G1 X110.408 Y131.208 E15.30231
G1 X111.142 Y129.493 E15.36083
G1 X112.172 Y127.417 E15.43348
G1 X112.387 Y127.021 E15.44762
G1 X113.568 Y125.028 E15.52027
G1 X114.607 Y123.478 E15.57878
G1 X116.004 Y121.630 E15.65143
G1 X117.513 Y119.872 E15.72408
G1 X119.092 Y118.249 E15.79508
G1 X119.574 Y118.650 F12000.000
G1 F3000
G1 X119.872 Y118.365 E15.80800
G1 X121.576 Y116.854 E15.87943
G1 X123.040 Y115.697 E15.93795
G1 X124.905 Y114.388 E16.00938
G1 X126.847 Y113.198 E16.08081
G1 X127.206 Y112.995 E16.09373
G1 X129.230 Y111.951 E16.16516
G1 X131.315 Y111.034 E16.23659
G1 X133.063 Y110.380 E16.29510
G1 X135.238 Y109.705 E16.36653
G1 X135.636 Y109.597 E16.37945
G1 X137.855 Y109.083 E16.45088
G1 X139.694 Y108.765 E16.50940
G1 X141.957 Y108.505 E16.58083
G1 X144.232 Y108.386 E16.65226
G1 X144.807 Y108.382 E16.67030
G1 X146.921 Y108.428 E16.73661
G1 X149.191 Y108.618 E16.80804
G1 X151.039 Y108.878 E16.86655
G1 X153.273 Y109.323 E16.93798
G1 X153.674 Y109.418 E16.95091
G1 X155.869 Y110.026 E17.02234
G1 X158.022 Y110.768 E17.09376
G1 X159.749 Y111.476 E17.15228
G1 X161.805 Y112.457 E17.22371
G1 X162.312 Y112.728 E17.24175
G1 X164.148 Y113.778 E17.30806
G1 X166.052 Y115.028 E17.37949
G1 X167.551 Y116.139 E17.43800
G1 X169.302 Y117.596 E17.50943
G1 X169.609 Y117.872 E17.52236
G1 X171.248 Y119.454 E17.59379
G1 X172.785 Y121.134 E17.66522
G1 X173.965 Y122.580 E17.72373
G1 X174.310 Y123.040 E17.74177
G1 X175.532 Y124.766 E17.80808
G1 X176.731 Y126.703 E17.87951
G1 X177.807 Y128.710 E17.95094
G1 X178.594 Y130.402 E18.00945
G1 X179.437 Y132.519 E18.08088
G1 X179.575 Y132.907 E18.09381
G1 X180.260 Y135.079 E18.16524
G1 X180.720 Y136.888 E18.22375
G1 X181.155 Y139.124 E18.29518
G1 X181.239 Y139.693 E18.31322
G1 X181.489 Y141.793 E18.37953
G1 X181.618 Y144.067 E18.45096
G1 X181.618 Y145.933 E18.50948
G1 X181.605 Y146.345 E18.52240
G1 X181.450 Y148.618 E18.59383
G1 X181.219 Y150.469 E18.65234
G1 X180.809 Y152.710 E18.72377
G1 X180.260 Y154.921 E18.79520
G1 X180.146 Y155.317 E18.80812
G1 X179.437 Y157.481 E18.87955
G1 X178.757 Y159.219 E18.93807
G1 X178.594 Y159.598 E18.95099
G1 X177.622 Y161.657 E19.02242
G1 X176.731 Y163.297 E19.08093
G1 X175.532 Y165.234 E19.15236
G1 X175.303 Y165.576 E19.16528
G1 X173.965 Y167.420 E19.23671
G1 X172.515 Y169.177 E19.30815
G1 X170.959 Y170.840 E19.37957
G1 X169.302 Y172.403 E19.45100
G1 X167.875 Y173.605 E19.50952
G1 X166.052 Y174.972 E19.58095
G1 X165.577 Y175.295 E19.59899
G1 X163.796 Y176.436 E19.66530
G1 X161.805 Y177.543 E19.73673
G1 X160.125 Y178.356 E19.79524
G1 X158.022 Y179.231 E19.86667
G1 X157.482 Y179.428 E19.88471
G1 X155.475 Y180.094 E19.95102
G1 X153.273 Y180.677 E20.02245
G1 X151.445 Y181.052 E20.08097
G1 X150.877 Y181.145 E20.09901
G1 X148.781 Y181.427 E20.16532
G1 X146.510 Y181.591 E20.23675
G1 X144.644 Y181.620 E20.29526
G1 X142.368 Y181.527 E20.36669
G1 X141.957 Y181.495 E20.37962
G1 X139.694 Y181.235 E20.45105
G1 X137.452 Y180.834 E20.52247
G1 X135.636 Y180.403 E20.58099
G1 X133.453 Y179.752 E20.65242
G1 X133.063 Y179.620 E20.66534
G1 X130.934 Y178.810 E20.73677
G1 X129.230 Y178.049 E20.79529
G1 X127.206 Y177.005 E20.86672
G1 X126.847 Y176.802 E20.87964
G1 X124.905 Y175.612 E20.95107
G1 X123.372 Y174.548 E21.00958
G1 X121.576 Y173.146 E21.08101
G1 X121.261 Y172.880 E21.09393
G1 X119.574 Y171.350 E21.16536
G1 X118.265 Y170.021 E21.22388
G1 X116.761 Y168.310 E21.29531
G1 X116.500 Y167.990 E21.30823
G1 X115.126 Y166.174 E21.37966
G1 X114.087 Y164.624 E21.43817
G1 X112.926 Y162.664 E21.50960
G1 X112.642 Y162.128 E21.52861
G1 X111.716 Y160.262 E21.59395
G1 X110.982 Y158.546 E21.65247
G1 X110.206 Y156.404 E21.72390
G1 X109.564 Y154.219 E21.79533
G1 X109.428 Y153.660 E21.81337
G1 X108.983 Y151.593 E21.87968
G1 X108.643 Y149.340 E21.95111
G1 X108.469 Y147.482 E22.00962
G1 X108.386 Y145.206 E22.08105
G1 X108.391 Y144.631 E22.09909
G1 X108.469 Y142.518 E22.16540
G1 X108.694 Y140.251 E22.23683
G1 X109.060 Y138.003 E22.30826
G1 X109.564 Y135.781 E22.37969
G1 X110.080 Y133.988 E22.43821
G1 X110.206 Y133.596 E22.45113
G1 X110.982 Y131.454 E22.52256
G1 X111.716 Y129.738 E22.58107
G1 X112.730 Y127.698 E22.65250
G1 X112.926 Y127.336 E22.66543
G1 X114.087 Y125.376 E22.73685
G1 X115.126 Y123.826 E22.79537
G1 X116.500 Y122.010 E22.86680
G1 X117.985 Y120.282 E22.93823
G1 X119.537 Y118.687 E23.00801
G1 E22.00801 F1800.00000
G92 E0
G1 X154.121 Y154.587 F12000.000
G1 E1.00000 F1800.00000
G1 F3000
G1 X153.104 Y155.460 E1.04202
G1 X152.004 Y156.225 E1.08403
G1 X150.833 Y156.876 E1.12605
G1 X149.601 Y157.404 E1.16807
G1 X148.323 Y157.805 E1.21009
G1 X147.010 Y158.075 E1.25210
G1 X145.677 Y158.211 E1.29412
G1 X144.337 Y158.211 E1.33614
G1 X143.004 Y158.075 E1.37816
G1 X141.692 Y157.805 E1.42017
G1 X140.413 Y157.404 E1.46219
G1 X139.182 Y156.876 E1.50421
G1 X138.010 Y156.225 E1.54623
G1 X136.911 Y155.460 E1.58824
G1 X135.894 Y154.587 E1.63026
G1 X134.971 Y153.616 E1.67228
G1 X134.151 Y152.556 E1.71430
G1 X133.442 Y151.419 E1.75631
G1 X132.852 Y150.216 E1.79833
G1 X132.386 Y148.960 E1.84035
G1 X132.050 Y147.663 E1.88237
G1 X131.848 Y146.338 E1.92438
G1 X131.780 Y145.000 E1.96640
G1 X131.848 Y143.662 E2.00842
G1 X132.050 Y142.337 E2.05044
G1 X132.386 Y141.040 E2.09245
G1 X132.852 Y139.784 E2.13447
G1 X133.442 Y138.581 E2.17649
G1 X134.151 Y137.444 E2.21851
G1 X134.971 Y136.384 E2.26052
G1 X135.894 Y135.413 E2.30254
G1 X136.911 Y134.540 E2.34456
G1 X138.010 Y133.775 E2.38658
G1 X139.182 Y133.124 E2.42859
G1 X140.415 Y132.595 E2.47068
G1 X141.715 Y132.190 E2.51337
G1 X143.004 Y131.925 E2.55464
G1 X144.337 Y131.789 E2.59666
G1 X145.677 Y131.789 E2.63868
G1 X147.010 Y131.925 E2.68069
G1 X148.323 Y132.195 E2.72271
G1 X149.601 Y132.596 E2.76473
G1 X150.833 Y133.124 E2.80675
G1 X152.004 Y133.775 E2.84876
G1 X153.104 Y134.540 E2.89078
G1 X154.121 Y135.413 E2.93280
G1 X155.044 Y136.384 E2.97482
G1 X155.864 Y137.444 E3.01683
G1 X156.573 Y138.581 E3.05885
G1 X157.163 Y139.784 E3.10087
G1 X157.628 Y141.040 E3.14289
G1 X157.964 Y142.337 E3.18490
G1 X158.167 Y143.662 E3.22692
G1 X158.235 Y145.000 E3.26894
G1 X158.167 Y146.338 E3.31096
G1 X157.964 Y147.663 E3.35297
G1 X157.628 Y148.960 E3.39499
G1 X157.163 Y150.216 E3.43701
G1 X156.573 Y151.419 E3.47903
G1 X155.864 Y152.556 E3.52104
G1 X155.044 Y153.616 E3.56306
G1 X154.157 Y154.549 E3.60343
G1 X153.689 Y154.134 F12000.000
G1 F3000
G1 X152.721 Y154.965 E3.64346
G1 X151.673 Y155.694 E3.68349
G1 X150.557 Y156.314 E3.72352
G1 X149.384 Y156.817 E3.76355
G1 X148.166 Y157.200 E3.80358
G1 X146.916 Y157.457 E3.84361
G1 X145.646 Y157.586 E3.88364
G1 X144.369 Y157.586 E3.92367
G1 X143.099 Y157.457 E3.96370
G1 X141.849 Y157.200 E4.00373
G1 X140.631 Y156.817 E4.04376
G1 X139.457 Y156.314 E4.08379
G1 X138.341 Y155.694 E4.12382
G1 X137.294 Y154.965 E4.16385
G1 X136.325 Y154.134 E4.20388
G1 X135.446 Y153.208 E4.24391
G1 X134.664 Y152.199 E4.28394
G1 X133.989 Y151.116 E4.32397
G1 X133.427 Y149.970 E4.36400
G1 X132.983 Y148.773 E4.40403
G1 X132.663 Y147.537 E4.44406
G1 X132.470 Y146.275 E4.48409
G1 X132.405 Y145.000 E4.52412
G1 X132.470 Y143.725 E4.56415
G1 X132.663 Y142.463 E4.60418
G1 X132.983 Y141.227 E4.64421
G1 X133.427 Y140.030 E4.68424
G1 X133.989 Y138.884 E4.72427
G1 X134.664 Y137.801 E4.76430
G1 X135.446 Y136.792 E4.80433
G1 X136.325 Y135.866 E4.84436
G1 X137.294 Y135.035 E4.88439
G1 X138.341 Y134.306 E4.92442
G1 X139.457 Y133.686 E4.96445
G1 X140.632 Y133.182 E5.00453
G1 X141.871 Y132.796 E5.04523
G1 X143.099 Y132.543 E5.08454
G1 X144.369 Y132.414 E5.12457
G1 X145.646 Y132.414 E5.16460
G1 X146.916 Y132.543 E5.20463
G1 X148.166 Y132.800 E5.24466
G1 X149.384 Y133.183 E5.28469
G1 X150.557 Y133.686 E5.32472
G1 X151.673 Y134.306 E5.36475
G1 X152.721 Y135.035 E5.40478
