; generated by Slic3r 1.3.0 on 2018-05-30 at 08:27:26

; external perimeters extrusion width = 0.38mm (0.00mm^3/s)
; perimeters extrusion width = 0.37mm (0.00mm^3/s)
; infill extrusion width = 0.37mm (0.00mm^3/s)
; solid infill extrusion width = 0.37mm (0.00mm^3/s)
; top infill extrusion width = 0.37mm (0.00mm^3/s)
; support material extrusion width = 0.38mm (0.00mm^3/s)

M107
M190 S65 ; set bed temperature and wait for it to be reached
M104 S205 ; set temperature
G28 ; home all axes
G1 Z5 F5000 ; lift nozzle
; Filament gcode

M109 S205 ; set temperature and wait for it to be reached
G21 ; set units to millimeters
G90 ; use absolute coordinates
M82 ; use absolute distances for extrusion
G92 E0
G1 E-1.00000 F1800.00000
G92 E0
G1 Z0.350 F12000.000
G1 X118.053 Y118.389 F12000.000
G1 E1.00000 F1800.00000
G1 F3000
G1 X119.709 Y116.811 E1.07174
G1 X120.187 Y116.394 E1.09162
G1 X121.831 Y115.042 E1.15839
G1 X123.682 Y113.698 E1.23013
G1 X125.204 Y112.714 E1.28695
G1 X127.190 Y111.577 E1.35869
G1 X127.611 Y111.356 E1.37361
G1 X129.674 Y110.368 E1.44534
G1 X131.793 Y109.506 E1.51708
G1 X133.506 Y108.914 E1.57391
G1 X135.706 Y108.286 E1.64565
G1 X137.940 Y107.792 E1.71738
G1 X138.408 Y107.706 E1.73230
G1 X140.671 Y107.376 E1.80404
G1 X142.476 Y107.212 E1.86086
G1 X144.762 Y107.129 E1.93260
G1 X147.049 Y107.184 E2.00434
G1 X147.682 Y107.227 E2.02422
G1 X149.801 Y107.434 E2.09099
G1 X152.060 Y107.792 E2.16273
G1 X153.832 Y108.172 E2.21955
G1 X156.040 Y108.773 E2.29129
G1 X158.207 Y109.506 E2.36303
G1 X158.652 Y109.674 E2.37794
G1 X160.760 Y110.563 E2.44968
G1 X162.389 Y111.356 E2.50651
G1 X164.389 Y112.468 E2.57825
G1 X164.929 Y112.800 E2.59813
G1 X166.709 Y113.968 E2.66490
G1 X168.543 Y115.335 E2.73663
G1 X170.291 Y116.811 E2.80837
G1 X171.611 Y118.053 E2.86520
G1 X173.189 Y119.709 E2.93694
G1 X173.505 Y120.065 E2.95185
G1 X174.665 Y121.457 E3.00868
G1 X176.032 Y123.291 E3.08042
G1 X177.286 Y125.204 E3.15215
G1 X178.423 Y127.190 E3.22389
G1 X178.713 Y127.754 E3.24378
G1 X179.632 Y129.674 E3.31054
G1 X180.494 Y131.793 E3.38228
G1 X181.086 Y133.506 E3.43911
G1 X181.714 Y135.706 E3.51084
G1 X182.208 Y137.940 E3.58258
G1 X182.317 Y138.564 E3.60247
G1 X182.624 Y140.671 E3.66923
G1 X182.788 Y142.476 E3.72606
G1 X182.871 Y144.762 E3.79780
G1 X182.866 Y145.396 E3.81768
G1 X182.788 Y147.524 E3.88445
G1 X182.624 Y149.329 E3.94128
G1 X182.294 Y151.592 E4.01301
G1 X182.208 Y152.060 E4.02793
G1 X181.714 Y154.294 E4.09967
G1 X181.086 Y156.494 E4.17140
G1 X180.326 Y158.652 E4.24314
G1 X179.437 Y160.760 E4.31488
G1 X178.644 Y162.389 E4.37171
G1 X177.532 Y164.389 E4.44344
G1 X177.200 Y164.929 E4.46333
G1 X176.032 Y166.709 E4.53010
G1 X174.665 Y168.543 E4.60183
G1 X173.189 Y170.291 E4.67357
G1 X171.947 Y171.611 E4.73040
G1 X170.291 Y173.189 E4.80213
G1 X169.935 Y173.505 E4.81705
G1 X168.169 Y174.958 E4.88879
G1 X166.709 Y176.032 E4.94561
G1 X164.796 Y177.286 E5.01735
G1 X162.810 Y178.423 E5.08909
G1 X162.246 Y178.713 E5.10897
G1 X160.326 Y179.632 E5.17574
G1 X158.207 Y180.494 E5.24748
G1 X156.040 Y181.227 E5.31921
G1 X154.294 Y181.714 E5.37604
G1 X152.060 Y182.208 E5.44778
G1 X151.436 Y182.317 E5.46766
G1 X149.329 Y182.624 E5.53443
G1 X147.524 Y182.788 E5.59126
G1 X145.238 Y182.871 E5.66300
G1 X144.604 Y182.866 E5.68288
G1 X142.476 Y182.788 E5.74965
G1 X140.199 Y182.566 E5.82138
G1 X137.940 Y182.208 E5.89312
G1 X135.706 Y181.714 E5.96486
G1 X133.960 Y181.227 E6.02169
G1 X133.506 Y181.086 E6.03660
G1 X131.348 Y180.326 E6.10834
G1 X129.674 Y179.632 E6.16517
G1 X127.611 Y178.644 E6.23690
G1 X125.611 Y177.532 E6.30864
G1 X125.071 Y177.200 E6.32853
G1 X123.291 Y176.032 E6.39529
G1 X121.457 Y174.665 E6.46703
G1 X119.709 Y173.189 E6.53877
G1 X118.389 Y171.947 E6.59559
G1 X116.811 Y170.291 E6.66733
G1 X116.495 Y169.935 E6.68225
G1 X115.042 Y168.169 E6.75398
G1 X113.968 Y166.709 E6.81081
G1 X112.714 Y164.796 E6.88255
G1 X112.390 Y164.250 E6.90244
G1 X111.356 Y162.389 E6.96920
G1 X110.368 Y160.326 E7.04094
G1 X109.506 Y158.207 E7.11267
G1 X108.914 Y156.494 E7.16950
G1 X108.730 Y155.887 E7.18939
G1 X108.172 Y153.832 E7.25615
G1 X107.706 Y151.593 E7.32789
G1 X107.376 Y149.329 E7.39963
G1 X107.184 Y147.049 E7.47136
G1 X107.129 Y145.238 E7.52819
G1 X107.134 Y144.604 E7.54808
G1 X107.212 Y142.476 E7.61484
G1 X107.376 Y140.671 E7.67167
G1 X107.706 Y138.407 E7.74341
G1 X108.172 Y136.168 E7.81515
G1 X108.773 Y133.960 E7.88688
G1 X108.914 Y133.506 E7.90180
G1 X109.674 Y131.348 E7.97354
G1 X110.563 Y129.240 E8.04527
G1 X111.356 Y127.611 E8.10210
G1 X111.577 Y127.190 E8.11702
G1 X112.714 Y125.204 E8.18875
G1 X113.968 Y123.291 E8.26049
G1 X115.042 Y121.831 E8.31732
G1 X116.495 Y120.065 E8.38906
G1 X118.017 Y118.428 E8.45915
G1 X118.508 Y118.818 F12000.000
G1 F3000
G1 X120.137 Y117.266 E8.52970
G1 X120.465 Y116.975 E8.54343
G1 X122.202 Y115.545 E8.61399
G1 X124.022 Y114.222 E8.68454
G1 X125.544 Y113.238 E8.74137
G1 X127.497 Y112.122 E8.81192
G1 X127.885 Y111.918 E8.82565
G1 X129.913 Y110.945 E8.89621
G1 X131.997 Y110.096 E8.96676
G1 X133.710 Y109.505 E9.02359
G1 X135.874 Y108.888 E9.09414
G1 X138.071 Y108.403 E9.16470
G1 X138.502 Y108.324 E9.17843
G1 X140.728 Y107.999 E9.24898
G1 X142.533 Y107.835 E9.30581
G1 X144.781 Y107.754 E9.37636
G1 X145.377 Y107.758 E9.39507
G1 X147.467 Y107.835 E9.46065
G1 X149.272 Y107.999 E9.51748
G1 X151.498 Y108.324 E9.58803
G1 X152.084 Y108.436 E9.60673
G1 X154.126 Y108.888 E9.67232
G1 X156.290 Y109.505 E9.74287
G1 X158.413 Y110.252 E9.81342
G1 X160.486 Y111.125 E9.88398
G1 X162.115 Y111.918 E9.94080
G1 X164.082 Y113.012 E10.01136
G1 X164.590 Y113.325 E10.03006
G1 X166.339 Y114.471 E10.09564
G1 X168.143 Y115.815 E10.16619
G1 X169.535 Y116.975 E10.22302
G1 X171.182 Y118.508 E10.29358
G1 X171.492 Y118.818 E10.30731
G1 X173.025 Y120.465 E10.37786
G1 X174.185 Y121.857 E10.43469
G1 X175.529 Y123.661 E10.50524
G1 X176.762 Y125.544 E10.57580
G1 X177.878 Y127.497 E10.64635
G1 X178.151 Y128.027 E10.66505
G1 X179.055 Y129.913 E10.73064
G1 X179.904 Y131.997 E10.80119
G1 X180.495 Y133.710 E10.85802
G1 X181.112 Y135.874 E10.92857
G1 X181.597 Y138.071 E10.99913
G1 X181.700 Y138.658 E11.01783
G1 X182.001 Y140.728 E11.08341
G1 X182.165 Y142.533 E11.14024
G1 X182.246 Y144.781 E11.21079
G1 X182.242 Y145.377 E11.22949
G1 X182.165 Y147.467 E11.29508
G1 X182.001 Y149.272 E11.35190
G1 X181.676 Y151.498 E11.42246
G1 X181.597 Y151.929 E11.43619
G1 X181.112 Y154.126 E11.50674
G1 X180.495 Y156.290 E11.57730
G1 X179.748 Y158.412 E11.64785
G1 X179.055 Y160.087 E11.70468
G1 X178.082 Y162.115 E11.77523
G1 X176.988 Y164.082 E11.84579
G1 X176.675 Y164.590 E11.86449
G1 X175.529 Y166.339 E11.93007
G1 X174.185 Y168.143 E12.00062
G1 X172.734 Y169.863 E12.07118
G1 X171.492 Y171.182 E12.12801
G1 X169.863 Y172.734 E12.19856
G1 X169.535 Y173.025 E12.21229
G1 X167.798 Y174.455 E12.28285
G1 X165.978 Y175.778 E12.35340
G1 X164.456 Y176.762 E12.41023
G1 X162.503 Y177.878 E12.48078
G1 X161.973 Y178.151 E12.49948
G1 X160.087 Y179.055 E12.56507
G1 X158.003 Y179.904 E12.63562
G1 X155.872 Y180.625 E12.70617
G1 X154.126 Y181.112 E12.76300
G1 X151.929 Y181.597 E12.83355
G1 X151.342 Y181.700 E12.85226
G1 X149.272 Y182.001 E12.91784
G1 X147.467 Y182.165 E12.97467
G1 X145.219 Y182.246 E13.04522
G1 X144.623 Y182.242 E13.06392
G1 X142.533 Y182.165 E13.12951
G1 X140.293 Y181.949 E13.20006
G1 X138.071 Y181.597 E13.27061
G1 X135.874 Y181.112 E13.34117
G1 X134.128 Y180.625 E13.39799
G1 X133.710 Y180.495 E13.41173
G1 X131.588 Y179.748 E13.48228
G1 X129.913 Y179.055 E13.53911
G1 X127.885 Y178.082 E13.60966
G1 X125.918 Y176.988 E13.68022
G1 X125.410 Y176.675 E13.69892
G1 X123.661 Y175.529 E13.76450
G1 X121.857 Y174.185 E13.83505
G1 X120.137 Y172.734 E13.90561
G1 X118.818 Y171.492 E13.96244
G1 X118.508 Y171.182 E13.97617
G1 X116.975 Y169.535 E14.04672
G1 X115.815 Y168.143 E14.10355
G1 X114.471 Y166.339 E14.17410
G1 X113.238 Y164.456 E14.24466
G1 X112.934 Y163.944 E14.26336
G1 X111.918 Y162.115 E14.32894
G1 X110.945 Y160.087 E14.39949
G1 X110.096 Y158.003 E14.47005
G1 X109.505 Y156.290 E14.52688
G1 X109.332 Y155.719 E14.54558
G1 X108.783 Y153.701 E14.61116
G1 X108.324 Y151.499 E14.68171
G1 X107.999 Y149.272 E14.75227
G1 X107.808 Y147.030 E14.82282
G1 X107.754 Y145.219 E14.87965
G1 X107.758 Y144.623 E14.89835
G1 X107.835 Y142.533 E14.96393
G1 X107.999 Y140.728 E15.02076
G1 X108.324 Y138.502 E15.09132
G1 X108.783 Y136.299 E15.16187
G1 X109.375 Y134.128 E15.23242
G1 X109.505 Y133.710 E15.24616
G1 X110.252 Y131.587 E15.31671
G1 X110.945 Y129.913 E15.37354
G1 X111.918 Y127.885 E15.44409
G1 X112.122 Y127.497 E15.45782
G1 X113.238 Y125.544 E15.52838
G1 X114.222 Y124.022 E15.58520
G1 X115.545 Y122.202 E15.65576
G1 X116.975 Y120.465 E15.72631
G1 X118.472 Y118.856 E15.79522
G1 X118.963 Y119.246 F12000.000
G1 F3000
G1 X120.865 Y117.455 E15.87713
G1 X122.572 Y116.048 E15.94650
G1 X124.361 Y114.747 E16.01587
G1 X125.883 Y113.763 E16.07270
G1 X127.804 Y112.666 E16.14207
G1 X130.152 Y111.522 E16.22398
G1 X131.827 Y110.829 E16.28081
G1 X133.914 Y110.096 E16.35018
G1 X136.042 Y109.490 E16.41955
G1 X138.202 Y109.014 E16.48892
G1 X140.784 Y108.621 E16.57084
G1 X142.589 Y108.457 E16.62766
G1 X144.800 Y108.378 E16.69703
G1 X147.411 Y108.457 E16.77894
G1 X149.216 Y108.621 E16.83577
G1 X151.404 Y108.942 E16.90514
G1 X153.958 Y109.490 E16.98706
G1 X156.086 Y110.096 E17.05643
G1 X158.173 Y110.829 E17.12580
G1 X159.848 Y111.522 E17.18262
G1 X161.842 Y112.480 E17.25199
G1 X163.775 Y113.556 E17.32136
G1 X164.250 Y113.849 E17.33888
G1 X165.968 Y114.974 E17.40328
G1 X167.743 Y116.295 E17.47265
G1 X169.435 Y117.721 E17.54202
G1 X170.754 Y118.963 E17.59885
G1 X172.545 Y120.865 E17.68076
G1 X173.952 Y122.572 E17.75013
G1 X175.253 Y124.361 E17.81950
G1 X176.444 Y126.225 E17.88888
G1 X177.334 Y127.804 E17.94570
G1 X178.478 Y130.152 E18.02762
G1 X179.171 Y131.827 E18.08444
G1 X179.904 Y133.914 E18.15381
G1 X180.510 Y136.042 E18.22318
G1 X180.986 Y138.202 E18.29255
G1 X181.379 Y140.784 E18.37447
G1 X181.543 Y142.589 E18.43129
G1 X181.622 Y144.800 E18.50066
G1 X181.543 Y147.411 E18.58258
G1 X181.379 Y149.216 E18.63940
G1 X181.058 Y151.404 E18.70877
G1 X180.510 Y153.958 E18.79069
G1 X179.904 Y156.086 E18.86006
G1 X179.171 Y158.173 E18.92943
G1 X178.313 Y160.213 E18.99880
G1 X177.520 Y161.842 E19.05563
G1 X176.444 Y163.775 E19.12500
G1 X176.151 Y164.250 E19.14251
G1 X175.026 Y165.968 E19.20691
G1 X173.705 Y167.743 E19.27628
G1 X172.279 Y169.434 E19.34565
G1 X171.037 Y170.754 E19.40248
G1 X169.135 Y172.545 E19.48440
G1 X167.743 Y173.705 E19.54122
G1 X165.968 Y175.026 E19.61059
G1 X164.117 Y176.237 E19.67996
G1 X162.196 Y177.334 E19.74933
G1 X159.848 Y178.478 E19.83125
G1 X158.173 Y179.171 E19.88807
G1 X156.086 Y179.904 E19.95744
G1 X153.958 Y180.510 E20.02681
G1 X151.798 Y180.986 E20.09619
G1 X149.216 Y181.379 E20.17810
G1 X147.411 Y181.543 E20.23492
G1 X145.200 Y181.622 E20.30430
G1 X142.589 Y181.543 E20.38621
G1 X140.387 Y181.331 E20.45558
G1 X138.202 Y180.986 E20.52495
G1 X136.042 Y180.510 E20.59432
G1 X134.296 Y180.023 E20.65115
G1 X131.827 Y179.171 E20.73306
G1 X130.152 Y178.478 E20.78989
G1 X128.158 Y177.520 E20.85926
G1 X126.225 Y176.444 E20.92863
G1 X125.750 Y176.151 E20.94615
G1 X124.032 Y175.026 E21.01055
G1 X122.257 Y173.705 E21.07992
G1 X120.565 Y172.279 E21.14929
G1 X119.246 Y171.037 E21.20611
G1 X117.455 Y169.135 E21.28803
G1 X116.295 Y167.743 E21.34485
G1 X114.974 Y165.968 E21.41422
G1 X113.556 Y163.775 E21.49614
G1 X112.480 Y161.842 E21.56551
G1 X111.522 Y159.848 E21.63488
G1 X110.829 Y158.173 E21.69170
G1 X110.096 Y156.086 E21.76108
G1 X109.490 Y153.958 E21.83045
G1 X109.361 Y153.415 E21.84797
G1 X108.942 Y151.404 E21.91236
G1 X108.621 Y149.216 E21.98173
G1 X108.433 Y147.011 E22.05110
G1 X108.378 Y145.200 E22.10793
G1 X108.457 Y142.589 E22.18984
G1 X108.621 Y140.784 E22.24667
G1 X108.942 Y138.596 E22.31604
G1 X109.394 Y136.430 E22.38541
G1 X109.977 Y134.296 E22.45478
G1 X110.829 Y131.827 E22.53670
G1 X111.687 Y129.787 E22.60607
G1 X112.480 Y128.158 E22.66289
G1 X113.763 Y125.883 E22.74481
G1 X114.974 Y124.032 E22.81418
G1 X116.048 Y122.572 E22.87100
G1 X117.455 Y120.865 E22.94037
G1 X118.927 Y119.284 E23.00810
G1 E22.00810 F1800.00000
G92 E0
G1 X155.569 Y155.694 F12000.000
G1 E1.00000 F1800.00000
G1 F3000
G1 X155.127 Y156.136 E1.01960
G1 X154.049 Y157.028 E1.06346
G1 X152.894 Y157.816 E1.10732
G1 X151.670 Y158.493 E1.15118
G1 X150.393 Y159.052 E1.19489
G1 X149.166 Y159.463 E1.23546
G1 X147.810 Y159.787 E1.27918
G1 X146.425 Y159.984 E1.32304
G1 X145.028 Y160.052 E1.36690
G1 X143.631 Y159.990 E1.41075
G1 X142.246 Y159.798 E1.45461
G1 X140.884 Y159.478 E1.49847
G1 X139.558 Y159.034 E1.54233
G1 X138.279 Y158.468 E1.58619
G1 X137.058 Y157.786 E1.63005
G1 X135.905 Y156.993 E1.67391
G1 X134.831 Y156.097 E1.71777
G1 X133.845 Y155.105 E1.76163
G1 X132.959 Y154.030 E1.80534
G1 X132.228 Y152.962 E1.84591
G1 X131.545 Y151.746 E1.88963
G1 X130.977 Y150.469 E1.93349
G1 X130.530 Y149.143 E1.97735
G1 X130.207 Y147.782 E2.02121
G1 X130.013 Y146.397 E2.06507
G1 X129.948 Y145.000 E2.10893
G1 X130.013 Y143.603 E2.15279
G1 X130.207 Y142.218 E2.19665
G1 X130.530 Y140.857 E2.24051
G1 X130.977 Y139.531 E2.28437
G1 X131.545 Y138.254 E2.32822
G1 X132.230 Y137.034 E2.37208
G1 X133.025 Y135.883 E2.41594
G1 X133.919 Y134.815 E2.45962
G1 X134.834 Y133.901 E2.50019
G1 X135.905 Y133.007 E2.54394
G1 X137.064 Y132.210 E2.58802
G1 X138.381 Y131.485 E2.63516
G1 X139.657 Y130.933 E2.67879
G1 X140.884 Y130.522 E2.71934
G1 X142.145 Y130.225 E2.75996
G1 X143.622 Y130.011 E2.80678
G1 X144.925 Y129.951 E2.84767
G1 X146.419 Y130.015 E2.89459
G1 X147.810 Y130.213 E2.93864
G1 X149.166 Y130.537 E2.98235
G1 X150.393 Y130.948 E3.02292
G1 X151.670 Y131.507 E3.06664
G1 X152.894 Y132.184 E3.11050
G1 X154.055 Y132.976 E3.15457
G1 X155.207 Y133.942 E3.20171
G1 X156.185 Y134.933 E3.24536
G1 X157.011 Y135.928 E3.28592
G1 X157.743 Y136.996 E3.32652
G1 X158.477 Y138.296 E3.37334
G1 X159.004 Y139.489 E3.41423
G1 X159.484 Y140.905 E3.46113
G1 X159.803 Y142.274 E3.50519
G1 X159.991 Y143.655 E3.54892
G1 X160.051 Y144.948 E3.58949
G1 X159.991 Y146.340 E3.63320
G1 X159.803 Y147.726 E3.67705
G1 X159.486 Y149.088 E3.72091
G1 X159.044 Y150.415 E3.76477
G1 X158.481 Y151.696 E3.80863
G1 X157.801 Y152.918 E3.85249
G1 X157.011 Y154.072 E3.89635
G1 X156.117 Y155.148 E3.94021
G1 X155.606 Y155.657 E3.96282
G1 X155.128 Y155.252 F12000.000
G1 F3000
G1 X154.706 Y155.673 E3.98151
G1 X153.673 Y156.528 E4.02355
G1 X152.566 Y157.283 E4.06558
G1 X151.393 Y157.932 E4.10762
G1 X150.168 Y158.468 E4.14955
G1 X148.994 Y158.862 E4.18838
G1 X147.693 Y159.172 E4.23031
G1 X146.366 Y159.361 E4.27234
G1 X145.027 Y159.426 E4.31438
G1 X143.688 Y159.367 E4.35641
G1 X142.360 Y159.183 E4.39845
G1 X141.055 Y158.877 E4.44049
G1 X139.784 Y158.451 E4.48252
G1 X138.558 Y157.908 E4.52456
G1 X137.388 Y157.255 E4.56659
G1 X136.283 Y156.495 E4.60863
G1 X135.254 Y155.636 E4.65066
G1 X134.309 Y154.685 E4.69270
G1 X133.459 Y153.654 E4.73463
G1 X132.759 Y152.632 E4.77345
G1 X132.104 Y151.466 E4.81539
G1 X131.560 Y150.241 E4.85742
G1 X131.131 Y148.971 E4.89946
G1 X130.822 Y147.667 E4.94150
G1 X130.636 Y146.339 E4.98353
G1 X130.573 Y145.000 E5.02557
G1 X130.636 Y143.661 E5.06760
G1 X130.822 Y142.333 E5.10964
G1 X131.131 Y141.029 E5.15168
G1 X131.560 Y139.759 E5.19371
G1 X132.104 Y138.534 E5.23575
G1 X132.760 Y137.365 E5.27778
G1 X133.522 Y136.262 E5.31981
G1 X134.380 Y135.238 E5.36172
G1 X135.256 Y134.362 E5.40055
G1 X136.283 Y133.505 E5.44250
G1 X137.392 Y132.743 E5.48470
G1 X138.656 Y132.047 E5.52994
G1 X139.881 Y131.517 E5.57180
G1 X141.055 Y131.123 E5.61062
G1 X142.261 Y130.840 E5.64948
G1 X143.681 Y130.634 E5.69448
G1 X144.926 Y130.576 E5.73354
G1 X146.362 Y130.638 E5.77862
G1 X147.693 Y130.828 E5.82079
G1 X148.994 Y131.138 E5.86272
G1 X150.168 Y131.532 E5.90154
G1 X151.393 Y132.068 E5.94348
G1 X152.566 Y132.717 E5.98551
G1 X153.677 Y133.475 E6.02770
G1 X154.783 Y134.401 E6.07294
G1 X155.721 Y135.353 E6.11482
G1 X156.512 Y136.305 E6.15364
G1 X157.212 Y137.327 E6.19249
G1 X157.918 Y138.577 E6.23749
G1 X158.421 Y139.716 E6.27655
G1 X158.883 Y141.077 E6.32162
G1 X159.187 Y142.387 E6.36380
